X:1187
T:Brudpolska efter Sparf Anders
T:(SvL Dalarna 1187)
R:Polska
O:Backa, Rättvik, Dalarna
S:Sparf Anders Andersson
B:Svenska Låtar Dalarna
N:SvL: Låten är en mycket gammal brudpolska, som ofta användes i bröllopsdansen.
M:3/4
L:1/8
K:Am
Q:144
A>c e2 g2|^/f2 e2 d2|e2 (c2{Bc}) AB|^GB [AA]4:| |:A>^c e/f/e/d/ cB/c/|
df a2 g2|fe (3d^cd eg|fe [ee]4|e>e ea a2|^fd fg g2|
e/^f/e/d/ cB/c/ df|e^c [dD]4|A>=c e2 g2|^/f2 e2 d2|e2 (c2{Bc}) AB|^GB [AA]4:|

